X: 13889
T: Fox On The Prowl, The
R: reel
M: 4/4
K: Dmajor
|:B||GABG AD3|ED3 GD3|G3A BGBd|e2dB BAA2|
GABG AD3|ED3 GD3|G3B dedB|AGAB G3:|
|:D||GABG D3E|GABG AD3|ED3 GABd|e2dB BAAd|
eB3 dBAB|GABG AD3|ED3 GABG|AGAB G3:|

